apps/www/public/images/blog/ga-week/ai-inference-now-available-in-supabase-edge-functions/infra-01--light.svg

<svg xmlns="http://www.w3.org/2000/svg" width="1601" height="940" fill="none" viewBox="0 0 1601 940"><path fill="#fcfcfc" d="M.5 0h1600v940H.5z"/><path fill="#171717" d="M703.054 128v-15.84h10.008v2.328h-7.248v4.104h6.144v2.328h-6.144v4.728h7.488V128zm16.071 0v-15.84h4.056c4.632 0 7.416 2.616 7.416 7.848S727.813 128 723.325 128zm2.784-2.256h1.104c3.024 0 4.728-1.848 4.728-5.736s-1.704-5.616-4.728-5.616h-1.104zm20.367 2.544c-3.984 0-6.984-2.928-6.984-8.16 0-5.208 3.024-8.256 7.104-8.256 2.088 0 3.504.984 4.464 1.968l-1.536 1.728c-.72-.768-1.56-1.296-2.928-1.296-2.496 0-4.248 2.184-4.248 5.76 0 3.624 1.512 5.856 4.296 5.856.84 0 1.656-.264 2.136-.72v-3.456h-2.712v-2.28h5.208v6.984c-1.032 1.008-2.784 1.872-4.8 1.872m11.15-.288v-15.84h10.008v2.328h-7.248v4.104h6.144v2.328h-6.144v4.728h7.488V128zm33.101 0v-15.84h5.232c3.24 0 5.76 1.152 5.76 4.68 0 2.4-1.248 3.864-3.144 4.512l3.768 6.648h-3.12l-3.408-6.216h-2.328V128zm2.76-8.448h2.184c2.16 0 3.312-.912 3.312-2.712 0-1.848-1.152-2.472-3.312-2.472h-2.184zm19.239 8.736c-3.456 0-5.52-1.992-5.52-6.336v-9.792h2.76v9.984c0 2.616 1.056 3.744 2.76 3.744 1.68 0 2.76-1.128 2.76-3.744v-9.984h2.688v9.792c0 4.344-2.016 6.336-5.448 6.336m11.343-.288v-15.84h2.808l4.224 8.976 1.464 3.36h.072c-.12-1.632-.384-3.624-.384-5.376v-6.96h2.64V128h-2.832l-4.2-9-1.464-3.336h-.072c.12 1.68.384 3.576.384 5.328V128zm20.798 0v-13.512h-4.92v-2.328h12.648v2.328h-4.944V128zm13.023 0v-2.352h3.768v-11.16h-3.768v-2.328h10.344v2.328h-3.792v11.16h3.792V128zm16.455 0v-15.84h2.952l2.184 6.192.768 2.376h.096l.72-2.376 2.184-6.192h2.952V128h-2.352v-7.128c0-1.512.216-4.488.36-5.976h-.096l-1.2 3.864-1.992 4.968h-1.344l-2.016-4.968-1.2-3.864h-.072c.12 1.488.36 4.464.36 5.976V128zm18.45 0v-15.84h10.008v2.328h-7.248v4.104h6.144v2.328h-6.144v4.728h7.488V128z"/><rect width="812" height="631" x="394.5" y="155" stroke="#fd880b" stroke-linecap="round" stroke-width="2" rx="32"/><rect width="220" height="423" x="942.5" y="203" fill="#c7c7c7" fill-opacity=".1" rx="32"/><rect width="220" height="423" x="942.5" y="203" stroke="#c7c7c7" stroke-dasharray="8 16" stroke-linecap="round" stroke-width="2" rx="32"/><rect width="220" height="102" x="942.5" y="652" fill="#c7c7c7" fill-opacity=".1" rx="32"/><rect width="220" height="102" x="942.5" y="652" stroke="#c7c7c7" stroke-linecap="round" stroke-width="2" rx="32"/><rect width="220" height="423" x="690.5" y="203" fill="#c7c7c7" fill-opacity=".1" rx="32"/><rect width="220" height="423" x="690.5" y="203" stroke="#c7c7c7" stroke-dasharray="8 16" stroke-linecap="round" stroke-width="2" rx="32"/><rect width="220" height="102" x="690.5" y="652" fill="#c7c7c7" fill-opacity=".1" rx="32"/><rect width="220" height="102" x="690.5" y="652" stroke="#c7c7c7" stroke-linecap="round" stroke-width="2" rx="32"/><rect width="220" height="423" x="438.5" y="203" fill="#c7c7c7" fill-opacity=".1" rx="32"/><rect width="220" height="423" x="438.5" y="203" stroke="#c7c7c7" stroke-dasharray="8 16" stroke-linecap="round" stroke-width="2" rx="32"/><rect width="220" height="102" x="438.5" y="652" fill="#c7c7c7" fill-opacity=".1" rx="32"/><rect width="220" height="102" x="438.5" y="652" stroke="#c7c7c7" stroke-linecap="round" stroke-width="2" rx="32"/><path fill="#171717" d="M492.973 415v-2.352h3.768v-11.16h-3.768v-2.328h10.344v2.328h-3.792v11.16h3.792V415zm21.998.288c-2.208 0-4.296-.84-5.832-2.328l1.608-1.896c1.176 1.08 2.736 1.824 4.272 1.824 1.944 0 2.928-.816 2.928-2.088 0-1.32-1.056-1.728-2.616-2.352l-2.136-.936c-1.68-.648-3.384-1.896-3.384-4.2 0-2.52 2.256-4.44 5.448-4.44 1.944 0 3.744.744 5.04 2.016l-1.44 1.752c-1.056-.864-2.136-1.368-3.6-1.368-1.632 0-2.64.696-2.64 1.896 0 1.248 1.272 1.68 2.688 2.256l2.064.888c1.992.816 3.408 1.968 3.408 4.272 0 2.568-2.136 4.704-5.808 4.704m16.743 0c-3.624 0-6.168-3.168-6.168-8.28 0-5.136 2.544-8.136 6.168-8.136 3.648 0 6.168 3.024 6.168 8.136s-2.52 8.28-6.168 8.28m0-2.4c2.016 0 3.336-2.304 3.336-5.88s-1.32-5.736-3.336-5.736-3.312 2.16-3.312 5.736 1.296 5.88 3.312 5.88M544.209 415v-15.84h2.736v13.488h7.392V415zm14.39 0 5.088-15.84h3.24l5.088 15.84h-2.928l-1.224-4.32h-5.208l-1.248 4.32zm4.656-6.504h4.008l-.552-1.968c-.48-1.68-.96-3.456-1.416-5.208h-.096a149 149 0 0 1-1.392 5.208zM580.694 415v-13.512h-4.92v-2.328h12.648v2.328h-4.944V415zm13.503 0v-15.84h10.008v2.328h-7.248v4.104h6.144v2.328h-6.144v4.728h7.488V415zM531.714 715.288c-3.624 0-6.168-3.168-6.168-8.28 0-5.136 2.544-8.136 6.168-8.136 3.648 0 6.168 3.024 6.168 8.136s-2.52 8.28-6.168 8.28m0-2.4c2.016 0 3.336-2.304 3.336-5.88s-1.32-5.736-3.336-5.736-3.312 2.16-3.312 5.736 1.296 5.88 3.312 5.88M543.345 715v-15.84h5.232c3.24 0 5.76 1.152 5.76 4.68 0 2.4-1.248 3.864-3.144 4.512l3.768 6.648h-3.12l-3.408-6.216h-2.328V715zm2.76-8.448h2.184c2.16 0 3.312-.912 3.312-2.712 0-1.848-1.152-2.472-3.312-2.472h-2.184zM563.903 715v-13.512h-4.92v-2.328h12.648v2.328h-4.944V715zM744.973 415v-2.352h3.768v-11.16h-3.768v-2.328h10.344v2.328h-3.792v11.16h3.792V415zm21.998.288c-2.208 0-4.296-.84-5.832-2.328l1.608-1.896c1.176 1.08 2.736 1.824 4.272 1.824 1.944 0 2.928-.816 2.928-2.088 0-1.32-1.056-1.728-2.616-2.352l-2.136-.936c-1.68-.648-3.384-1.896-3.384-4.2 0-2.52 2.256-4.44 5.448-4.44 1.944 0 3.744.744 5.04 2.016l-1.44 1.752c-1.056-.864-2.136-1.368-3.6-1.368-1.632 0-2.64.696-2.64 1.896 0 1.248 1.272 1.68 2.688 2.256l2.064.888c1.992.816 3.408 1.968 3.408 4.272 0 2.568-2.136 4.704-5.808 4.704m16.743 0c-3.624 0-6.168-3.168-6.168-8.28 0-5.136 2.544-8.136 6.168-8.136 3.648 0 6.168 3.024 6.168 8.136s-2.52 8.28-6.168 8.28m0-2.4c2.016 0 3.336-2.304 3.336-5.88s-1.32-5.736-3.336-5.736-3.312 2.16-3.312 5.736 1.296 5.88 3.312 5.88M796.209 415v-15.84h2.736v13.488h7.392V415zm14.39 0 5.088-15.84h3.24l5.088 15.84h-2.928l-1.224-4.32h-5.208l-1.248 4.32zm4.656-6.504h4.008l-.552-1.968c-.48-1.68-.96-3.456-1.416-5.208h-.096a149 149 0 0 1-1.392 5.208zM832.694 415v-13.512h-4.92v-2.328h12.648v2.328h-4.944V415zm13.503 0v-15.84h10.008v2.328h-7.248v4.104h6.144v2.328h-6.144v4.728h7.488V415zM783.714 715.288c-3.624 0-6.168-3.168-6.168-8.28 0-5.136 2.544-8.136 6.168-8.136 3.648 0 6.168 3.024 6.168 8.136s-2.52 8.28-6.168 8.28m0-2.4c2.016 0 3.336-2.304 3.336-5.88s-1.32-5.736-3.336-5.736-3.312 2.16-3.312 5.736 1.296 5.88 3.312 5.88M795.345 715v-15.84h5.232c3.24 0 5.76 1.152 5.76 4.68 0 2.4-1.248 3.864-3.144 4.512l3.768 6.648h-3.12l-3.408-6.216h-2.328V715zm2.76-8.448h2.184c2.16 0 3.312-.912 3.312-2.712 0-1.848-1.152-2.472-3.312-2.472h-2.184zM815.903 715v-13.512h-4.92v-2.328h12.648v2.328h-4.944V715zM996.973 415v-2.352h3.767v-11.16h-3.767v-2.328h10.347v2.328h-3.8v11.16h3.8V415zm21.997.288c-2.21 0-4.29-.84-5.83-2.328l1.61-1.896c1.17 1.08 2.73 1.824 4.27 1.824 1.94 0 2.93-.816 2.93-2.088 0-1.32-1.06-1.728-2.62-2.352l-2.13-.936c-1.68-.648-3.39-1.896-3.39-4.2 0-2.52 2.26-4.44 5.45-4.44 1.94 0 3.74.744 5.04 2.016l-1.44 1.752c-1.06-.864-2.14-1.368-3.6-1.368-1.63 0-2.64.696-2.64 1.896 0 1.248 1.27 1.68 2.69 2.256l2.06.888c1.99.816 3.41 1.968 3.41 4.272 0 2.568-2.14 4.704-5.81 4.704m16.74 0c-3.62 0-6.16-3.168-6.16-8.28 0-5.136 2.54-8.136 6.16-8.136 3.65 0 6.17 3.024 6.17 8.136s-2.52 8.28-6.17 8.28m0-2.4c2.02 0 3.34-2.304 3.34-5.88s-1.32-5.736-3.34-5.736c-2.01 0-3.31 2.16-3.31 5.736s1.3 5.88 3.31 5.88m12.5 2.112v-15.84h2.73v13.488h7.4V415zm14.39 0 5.09-15.84h3.24l5.09 15.84h-2.93l-1.23-4.32h-5.2l-1.25 4.32zm4.66-6.504h4l-.55-1.968c-.48-1.68-.96-3.456-1.41-5.208h-.1c-.43 1.752-.91 3.528-1.39 5.208zm17.43 6.504v-13.512h-4.92v-2.328h12.65v2.328h-4.94V415zm13.51 0v-15.84h10v2.328h-7.24v4.104h6.14v2.328h-6.14v4.728h7.48V415zM1035.71 715.288c-3.62 0-6.16-3.168-6.16-8.28 0-5.136 2.54-8.136 6.16-8.136 3.65 0 6.17 3.024 6.17 8.136s-2.52 8.28-6.17 8.28m0-2.4c2.02 0 3.34-2.304 3.34-5.88s-1.32-5.736-3.34-5.736c-2.01 0-3.31 2.16-3.31 5.736s1.3 5.88 3.31 5.88m11.63 2.112v-15.84h5.24c3.24 0 5.76 1.152 5.76 4.68 0 2.4-1.25 3.864-3.15 4.512l3.77 6.648h-3.12l-3.41-6.216h-2.33V715zm2.76-8.448h2.19c2.16 0 3.31-.912 3.31-2.712 0-1.848-1.15-2.472-3.31-2.472h-2.19zm17.8 8.448v-13.512h-4.92v-2.328h12.65v2.328h-4.94V715z"/></svg>

<svg width="1601" height="940" viewBox="0 0 1601 940" fill="none" xmlns="http://www.w3.org/2000/svg">
<rect width="1600" height="940" transform="translate(0.5)" fill="#FCFCFC"/>
<path d="M703.054 128V112.16H713.062V114.488H705.814V118.592H711.958V120.92H705.814V125.648H713.302V128H703.054ZM719.125 128V112.16H723.181C727.813 112.16 730.597 114.776 730.597 120.008C730.597 125.24 727.813 128 723.325 128H719.125ZM721.909 125.744H723.013C726.037 125.744 727.741 123.896 727.741 120.008C727.741 116.12 726.037 114.392 723.013 114.392H721.909V125.744ZM742.276 128.288C738.292 128.288 735.292 125.36 735.292 120.128C735.292 114.92 738.316 111.872 742.396 111.872C744.484 111.872 745.9 112.856 746.86 113.84L745.324 115.568C744.604 114.8 743.764 114.272 742.396 114.272C739.9 114.272 738.148 116.456 738.148 120.032C738.148 123.656 739.66 125.888 742.444 125.888C743.284 125.888 744.1 125.624 744.58 125.168V121.712H741.868V119.432H747.076V126.416C746.044 127.424 744.292 128.288 742.276 128.288ZM753.426 128V112.16H763.434V114.488H756.186V118.592H762.33V120.92H756.186V125.648H763.674V128H753.426ZM786.527 128V112.16H791.759C794.999 112.16 797.519 113.312 797.519 116.84C797.519 119.24 796.271 120.704 794.375 121.352L798.143 128H795.023L791.615 121.784H789.287V128H786.527ZM789.287 119.552H791.471C793.631 119.552 794.783 118.64 794.783 116.84C794.783 114.992 793.631 114.368 791.471 114.368H789.287V119.552ZM808.526 128.288C805.07 128.288 803.006 126.296 803.006 121.952V112.16H805.766V122.144C805.766 124.76 806.822 125.888 808.526 125.888C810.206 125.888 811.286 124.76 811.286 122.144V112.16H813.974V121.952C813.974 126.296 811.958 128.288 808.526 128.288ZM819.869 128V112.16H822.677L826.901 121.136L828.365 124.496H828.437C828.317 122.864 828.053 120.872 828.053 119.12V112.16H830.693V128H827.861L823.661 119L822.197 115.664H822.125C822.245 117.344 822.509 119.24 822.509 120.992V128H819.869ZM840.667 128V114.488H835.747V112.16H848.395V114.488H843.451V128H840.667ZM853.69 128V125.648H857.458V114.488H853.69V112.16H864.034V114.488H860.242V125.648H864.034V128H853.69ZM870.145 128V112.16H873.097L875.281 118.352L876.049 120.728H876.145L876.865 118.352L879.049 112.16H882.001V128H879.649V120.872C879.649 119.36 879.865 116.384 880.009 114.896H879.913L878.713 118.76L876.721 123.728H875.377L873.361 118.76L872.161 114.896H872.089C872.209 116.384 872.449 119.36 872.449 120.872V128H870.145ZM888.595 128V112.16H898.603V114.488H891.355V118.592H897.499V120.92H891.355V125.648H898.843V128H888.595Z" fill="#171717"/>
<rect x="394.5" y="155" width="812" height="631" rx="32" stroke="#FD880B" stroke-width="2" stroke-linecap="round"/>
<rect x="942.5" y="203" width="220" height="423" rx="32" fill="#C7C7C7" fill-opacity="0.1"/>
<rect x="942.5" y="203" width="220" height="423" rx="32" stroke="#C7C7C7" stroke-width="2" stroke-linecap="round" stroke-dasharray="8 16"/>
<rect x="942.5" y="652" width="220" height="102" rx="32" fill="#C7C7C7" fill-opacity="0.1"/>
<rect x="942.5" y="652" width="220" height="102" rx="32" stroke="#C7C7C7" stroke-width="2" stroke-linecap="round"/>
<rect x="690.5" y="203" width="220" height="423" rx="32" fill="#C7C7C7" fill-opacity="0.1"/>
<rect x="690.5" y="203" width="220" height="423" rx="32" stroke="#C7C7C7" stroke-width="2" stroke-linecap="round" stroke-dasharray="8 16"/>
<rect x="690.5" y="652" width="220" height="102" rx="32" fill="#C7C7C7" fill-opacity="0.1"/>
<rect x="690.5" y="652" width="220" height="102" rx="32" stroke="#C7C7C7" stroke-width="2" stroke-linecap="round"/>
<rect x="438.5" y="203" width="220" height="423" rx="32" fill="#C7C7C7" fill-opacity="0.1"/>
<rect x="438.5" y="203" width="220" height="423" rx="32" stroke="#C7C7C7" stroke-width="2" stroke-linecap="round" stroke-dasharray="8 16"/>
<rect x="438.5" y="652" width="220" height="102" rx="32" fill="#C7C7C7" fill-opacity="0.1"/>
<rect x="438.5" y="652" width="220" height="102" rx="32" stroke="#C7C7C7" stroke-width="2" stroke-linecap="round"/>
<path d="M492.973 415V412.648H496.741V401.488H492.973V399.16H503.317V401.488H499.525V412.648H503.317V415H492.973ZM514.971 415.288C512.763 415.288 510.675 414.448 509.139 412.96L510.747 411.064C511.923 412.144 513.483 412.888 515.019 412.888C516.963 412.888 517.947 412.072 517.947 410.8C517.947 409.48 516.891 409.072 515.331 408.448L513.195 407.512C511.515 406.864 509.811 405.616 509.811 403.312C509.811 400.792 512.067 398.872 515.259 398.872C517.203 398.872 519.003 399.616 520.299 400.888L518.859 402.64C517.803 401.776 516.723 401.272 515.259 401.272C513.627 401.272 512.619 401.968 512.619 403.168C512.619 404.416 513.891 404.848 515.307 405.424L517.371 406.312C519.363 407.128 520.779 408.28 520.779 410.584C520.779 413.152 518.643 415.288 514.971 415.288ZM531.714 415.288C528.09 415.288 525.546 412.12 525.546 407.008C525.546 401.872 528.09 398.872 531.714 398.872C535.362 398.872 537.882 401.896 537.882 407.008C537.882 412.12 535.362 415.288 531.714 415.288ZM531.714 412.888C533.73 412.888 535.05 410.584 535.05 407.008C535.05 403.432 533.73 401.272 531.714 401.272C529.698 401.272 528.402 403.432 528.402 407.008C528.402 410.584 529.698 412.888 531.714 412.888ZM544.209 415V399.16H546.945V412.648H554.337V415H544.209ZM558.599 415L563.687 399.16H566.927L572.015 415H569.087L567.863 410.68H562.655L561.407 415H558.599ZM563.255 408.496H567.263L566.711 406.528C566.231 404.848 565.751 403.072 565.295 401.32H565.199C564.767 403.072 564.287 404.848 563.807 406.528L563.255 408.496ZM580.694 415V401.488H575.774V399.16H588.422V401.488H583.478V415H580.694ZM594.197 415V399.16H604.205V401.488H596.957V405.592H603.101V407.92H596.957V412.648H604.445V415H594.197Z" fill="#171717"/>
<path d="M531.714 715.288C528.09 715.288 525.546 712.12 525.546 707.008C525.546 701.872 528.09 698.872 531.714 698.872C535.362 698.872 537.882 701.896 537.882 707.008C537.882 712.12 535.362 715.288 531.714 715.288ZM531.714 712.888C533.73 712.888 535.05 710.584 535.05 707.008C535.05 703.432 533.73 701.272 531.714 701.272C529.698 701.272 528.402 703.432 528.402 707.008C528.402 710.584 529.698 712.888 531.714 712.888ZM543.345 715V699.16H548.577C551.817 699.16 554.337 700.312 554.337 703.84C554.337 706.24 553.089 707.704 551.193 708.352L554.961 715H551.841L548.433 708.784H546.105V715H543.345ZM546.105 706.552H548.289C550.449 706.552 551.601 705.64 551.601 703.84C551.601 701.992 550.449 701.368 548.289 701.368H546.105V706.552ZM563.903 715V701.488H558.983V699.16H571.631V701.488H566.687V715H563.903Z" fill="#171717"/>
<path d="M744.973 415V412.648H748.741V401.488H744.973V399.16H755.317V401.488H751.525V412.648H755.317V415H744.973ZM766.971 415.288C764.763 415.288 762.675 414.448 761.139 412.96L762.747 411.064C763.923 412.144 765.483 412.888 767.019 412.888C768.963 412.888 769.947 412.072 769.947 410.8C769.947 409.48 768.891 409.072 767.331 408.448L765.195 407.512C763.515 406.864 761.811 405.616 761.811 403.312C761.811 400.792 764.067 398.872 767.259 398.872C769.203 398.872 771.003 399.616 772.299 400.888L770.859 402.64C769.803 401.776 768.723 401.272 767.259 401.272C765.627 401.272 764.619 401.968 764.619 403.168C764.619 404.416 765.891 404.848 767.307 405.424L769.371 406.312C771.363 407.128 772.779 408.28 772.779 410.584C772.779 413.152 770.643 415.288 766.971 415.288ZM783.714 415.288C780.09 415.288 777.546 412.12 777.546 407.008C777.546 401.872 780.09 398.872 783.714 398.872C787.362 398.872 789.882 401.896 789.882 407.008C789.882 412.12 787.362 415.288 783.714 415.288ZM783.714 412.888C785.73 412.888 787.05 410.584 787.05 407.008C787.05 403.432 785.73 401.272 783.714 401.272C781.698 401.272 780.402 403.432 780.402 407.008C780.402 410.584 781.698 412.888 783.714 412.888ZM796.209 415V399.16H798.945V412.648H806.337V415H796.209ZM810.599 415L815.687 399.16H818.927L824.015 415H821.087L819.863 410.68H814.655L813.407 415H810.599ZM815.255 408.496H819.263L818.711 406.528C818.231 404.848 817.751 403.072 817.295 401.32H817.199C816.767 403.072 816.287 404.848 815.807 406.528L815.255 408.496ZM832.694 415V401.488H827.774V399.16H840.422V401.488H835.478V415H832.694ZM846.197 415V399.16H856.205V401.488H848.957V405.592H855.101V407.92H848.957V412.648H856.445V415H846.197Z" fill="#171717"/>
<path d="M783.714 715.288C780.09 715.288 777.546 712.12 777.546 707.008C777.546 701.872 780.09 698.872 783.714 698.872C787.362 698.872 789.882 701.896 789.882 707.008C789.882 712.12 787.362 715.288 783.714 715.288ZM783.714 712.888C785.73 712.888 787.05 710.584 787.05 707.008C787.05 703.432 785.73 701.272 783.714 701.272C781.698 701.272 780.402 703.432 780.402 707.008C780.402 710.584 781.698 712.888 783.714 712.888ZM795.345 715V699.16H800.577C803.817 699.16 806.337 700.312 806.337 703.84C806.337 706.24 805.089 707.704 803.193 708.352L806.961 715H803.841L800.433 708.784H798.105V715H795.345ZM798.105 706.552H800.289C802.449 706.552 803.601 705.64 803.601 703.84C803.601 701.992 802.449 701.368 800.289 701.368H798.105V706.552ZM815.903 715V701.488H810.983V699.16H823.631V701.488H818.687V715H815.903Z" fill="#171717"/>
<path d="M996.973 415V412.648H1000.74V401.488H996.973V399.16H1007.32V401.488H1003.52V412.648H1007.32V415H996.973ZM1018.97 415.288C1016.76 415.288 1014.68 414.448 1013.14 412.96L1014.75 411.064C1015.92 412.144 1017.48 412.888 1019.02 412.888C1020.96 412.888 1021.95 412.072 1021.95 410.8C1021.95 409.48 1020.89 409.072 1019.33 408.448L1017.2 407.512C1015.52 406.864 1013.81 405.616 1013.81 403.312C1013.81 400.792 1016.07 398.872 1019.26 398.872C1021.2 398.872 1023 399.616 1024.3 400.888L1022.86 402.64C1021.8 401.776 1020.72 401.272 1019.26 401.272C1017.63 401.272 1016.62 401.968 1016.62 403.168C1016.62 404.416 1017.89 404.848 1019.31 405.424L1021.37 406.312C1023.36 407.128 1024.78 408.28 1024.78 410.584C1024.78 413.152 1022.64 415.288 1018.97 415.288ZM1035.71 415.288C1032.09 415.288 1029.55 412.12 1029.55 407.008C1029.55 401.872 1032.09 398.872 1035.71 398.872C1039.36 398.872 1041.88 401.896 1041.88 407.008C1041.88 412.12 1039.36 415.288 1035.71 415.288ZM1035.71 412.888C1037.73 412.888 1039.05 410.584 1039.05 407.008C1039.05 403.432 1037.73 401.272 1035.71 401.272C1033.7 401.272 1032.4 403.432 1032.4 407.008C1032.4 410.584 1033.7 412.888 1035.71 412.888ZM1048.21 415V399.16H1050.94V412.648H1058.34V415H1048.21ZM1062.6 415L1067.69 399.16H1070.93L1076.02 415H1073.09L1071.86 410.68H1066.66L1065.41 415H1062.6ZM1067.26 408.496H1071.26L1070.71 406.528C1070.23 404.848 1069.75 403.072 1069.3 401.32H1069.2C1068.77 403.072 1068.29 404.848 1067.81 406.528L1067.26 408.496ZM1084.69 415V401.488H1079.77V399.16H1092.42V401.488H1087.48V415H1084.69ZM1098.2 415V399.16H1108.2V401.488H1100.96V405.592H1107.1V407.92H1100.96V412.648H1108.44V415H1098.2Z" fill="#171717"/>
<path d="M1035.71 715.288C1032.09 715.288 1029.55 712.12 1029.55 707.008C1029.55 701.872 1032.09 698.872 1035.71 698.872C1039.36 698.872 1041.88 701.896 1041.88 707.008C1041.88 712.12 1039.36 715.288 1035.71 715.288ZM1035.71 712.888C1037.73 712.888 1039.05 710.584 1039.05 707.008C1039.05 703.432 1037.73 701.272 1035.71 701.272C1033.7 701.272 1032.4 703.432 1032.4 707.008C1032.4 710.584 1033.7 712.888 1035.71 712.888ZM1047.34 715V699.16H1052.58C1055.82 699.16 1058.34 700.312 1058.34 703.84C1058.34 706.24 1057.09 707.704 1055.19 708.352L1058.96 715H1055.84L1052.43 708.784H1050.1V715H1047.34ZM1050.1 706.552H1052.29C1054.45 706.552 1055.6 705.64 1055.6 703.84C1055.6 701.992 1054.45 701.368 1052.29 701.368H1050.1V706.552ZM1067.9 715V701.488H1062.98V699.16H1075.63V701.488H1070.69V715H1067.9Z" fill="#171717"/>
</svg>
